X:650
T:Tar Road to Sligo
R:jig
Z:Transcribed by Dave Marshall
M:6/8
K:D
|: fdB Bcd | ecA BAG | FGA ABc | dcd efg |
fdB Bcd | ecA BAG | FGA Aag |1 fdc d2e :|2 fdc d2B|
|:Adf Adf | ~g3 efg | afd dcd | Bed cBA
|1 Adf Adf | ~g3 efg | afd bge | edc d2B :|2
fdB ~g3 | afd bge |~a3 bge | edc d2e |
